X:1
T:Paddy O’Rafferty [1]
M:6/8
L:1/8
R:Jig
S:Button & Whitaker’s Selection of Dances, Reels, Waltzes No. 1 (undated, early 19th century)
Z:AK/Fiddler’s Companion
K:Bb
c |: B/c/dF FGF | Fed cBc | B/c/dF FGF | BcB BGF |
B/c/dF FGF | Fed efg | fdb fdB | BcB BGF :|
|: Fdd Fcc | Fdd cBc | Fdd Fcc | BcB BGF |
Fdd Fcc | Fdd cBc | def gab | BcB BGF :|]

